Newaita-dark/actions/24/call-start.svg

<?xml version="1.0" encoding="UTF-8"?>
<svg xmlns="http://www.w3.org/2000/svg" xmlns:xlink="http://www.w3.org/1999/xlink" width="24px" height="24px" viewBox="0 0 24 24" version="1.1">
<g id="surface1">
<path style=" stroke:none;fill-rule:nonzero;fill:rgb(87.843138%,87.843138%,87.843138%);fill-opacity:1;" d="M 17.480469 20.847656 L 15 16.550781 C 14.726562 16.074219 14.886719 15.46875 15.363281 15.195312 L 16.222656 14.699219 C 16.695312 14.425781 17.304688 14.585938 17.578125 15.0625 L 20.058594 19.359375 C 20.332031 19.832031 20.167969 20.441406 19.695312 20.714844 L 18.835938 21.210938 C 18.359375 21.484375 17.753906 21.320312 17.480469 20.847656 Z M 17.480469 20.847656 "/>
<path style=" stroke:none;fill-rule:nonzero;fill:rgb(87.843138%,87.843138%,87.843138%);fill-opacity:1;" d="M 8.46875 15.164062 C 9.460938 16.882812 13.183594 23.328125 17.050781 21.09375 L 14.570312 16.796875 C 13.28125 17.542969 11.179688 15.890625 10.1875 14.171875 C 9.195312 12.453125 8.816406 9.808594 10.105469 9.066406 L 7.625 4.769531 C 3.757812 7 7.476562 13.445312 8.46875 15.164062 Z M 8.46875 15.164062 "/>
<path style=" stroke:none;fill-rule:nonzero;fill:rgb(87.843138%,87.843138%,87.843138%);fill-opacity:1;" d="M 8.054688 4.519531 L 10.535156 8.816406 C 10.808594 9.292969 11.414062 9.453125 11.890625 9.179688 L 12.75 8.683594 C 13.222656 8.410156 13.386719 7.800781 13.113281 7.328125 L 10.632812 3.03125 C 10.355469 2.558594 9.75 2.394531 9.277344 2.667969 L 8.417969 3.164062 C 7.941406 3.4375 7.78125 4.046875 8.054688 4.519531 Z M 8.054688 4.519531 "/>
</g>
</svg>

<svg xmlns="http://www.w3.org/2000/svg" width="32" height="32" viewBox="0 0 24 24"><g fill="#26a69a"><path d="M17.48 20.848L15 16.55a.99.99 0 0 1 .363-1.356l.86-.496a.991.991 0 0 1 1.355.364l2.48 4.296a.995.995 0 0 1-.363 1.356l-.86.496a.994.994 0 0 1-1.355-.363zm0 0" fill-opacity=".986"/><path d="M8.469 15.164c.992 1.719 4.715 8.164 8.582 5.93l-2.48-4.297c-1.29.746-3.391-.906-4.383-2.625-.993-1.719-1.372-4.363-.083-5.106L7.625 4.77c-3.867 2.23-.148 8.675.844 10.394zm0 0"/><path d="M8.055 4.52l2.48 4.296a.99.99 0 0 0 1.356.364l.859-.496a.995.995 0 0 0 .363-1.356l-2.48-4.297a.996.996 0 0 0-1.356-.363l-.859.496a.991.991 0 0 0-.363 1.356zm0 0" fill-opacity=".986"/></g></svg>
